X: 39371
T: Tana
R: reel
M: 4/4
K: Bminor
FB B2 Ad d2|DF F2 EA A2|F2 EF DEFA|G2 FG E3G|
FB B2 Ad d2|DF F2 EAAG|F2 EF DEFA|G2 FG E3g||
fedc d2 Ad|(3.B.c.d AF E3 F|DAAF E2 DE|FBBA Bcde|
fedc dBAF|(3.B.c.d AF E3 F|DAAF E2 DE|FBBA B4||

